X:19048
T:Star Of The County Down, The
R:March
C:Trad.
O:Irish
Z:Paul Hardy's Session Tunebook 2015 (see www.paulhardy.net). Creative Commons cc by-nc-sa licenced.
M:4/4
L:1/8
Q:1/4=160
K:Em
B,D|"Em"E2 E2 E2 DE|"G"G2 G2 "D"A2 GA|"Em"B2 AG E2 DB,|"D"D6 B,D|"Em"E2 E2 E2 DE|"G"G2 G2 "D"A2 GA|"Em"B2 AG "D"E2 D2|"Em"E6 BB|
"G"d2 B2 B2 AG|"Am"A2 A2 A2 GA|"G"B2 AG "Em"E2 DB,|"D"D6 B,D|"Em"E2 E2 E2 DE|"G"G2 G2 "D"A2 GA|"Em"B2 AG "D"E2 D2|"Em"E6|]

